modules/hawcons-filled/icons/icon-41-file-avi.svg

<?xml version="1.0" encoding="UTF-8" standalone="no"?>
<svg width="32px" height="32px" viewBox="0 0 32 32" version="1.1" xmlns="http://www.w3.org/2000/svg" xmlns:xlink="http://www.w3.org/1999/xlink" xmlns:sketch="http://www.bohemiancoding.com/sketch/ns">
    <!-- Generator: Sketch 3.0.3 (7891) - http://www.bohemiancoding.com/sketch -->
    <title>icon 41 file avi</title>
    <desc>Created with Sketch.</desc>
    <defs></defs>
    <g id="Page-1" stroke="none" stroke-width="1" fill="none" fill-rule="evenodd" sketch:type="MSPage">
        <g id="icon-41-file-avi" sketch:type="MSArtboardGroup" fill="#929292">
            <path d="M7.00684834,10 C5.34621185,10 4,11.3422643 4,12.9987856 L4,20.0012144 C4,21.6573979 5.33599155,23 7.00684834,23 L23.9931517,23 C25.6537881,23 27,21.6577357 27,20.0012144 L27,12.9987856 C27,11.3426021 25.6640085,10 23.9931517,10 L7.00684834,10 L7.00684834,10 Z M12,17 L9,17 L9,20 L8,20 L8,16.5 L8,15 C8,13.8877296 8.89761602,13 10.0048815,13 L10.9951185,13 C12.1061002,13 13,13.8954305 13,15 L13,17 L13,20 L12,20 L12,17 L12,17 L12,17 Z M9.99895656,14 C9.44724809,14 9,14.4438648 9,15 L9,16 L12,16 L12,15 C12,14.4477153 11.5573397,14 11.0010434,14 L9.99895656,14 L9.99895656,14 Z M16.5,18.25 L18,13 L19,13 L17,20 L16.5,20 L16,20 L14,13 L15,13 L16.5,18.25 L16.5,18.25 Z M21,14 L21,19 L20,19 L20,20 L23,20 L23,19 L22,19 L22,14 L23,14 L23,13 L20,13 L20,14 L21,14 L21,14 Z" id="file-avi" sketch:type="MSShapeGroup"></path>
        </g>
    </g>
</svg>

<svg width="32" height="32" xmlns="http://www.w3.org/2000/svg"><path d="M7.007 10A3.003 3.003 0 0 0 4 12.999V20A2.996 2.996 0 0 0 7.007 23h16.986A3.003 3.003 0 0 0 27 20.001V13A2.996 2.996 0 0 0 23.993 10H7.007zM12 17H9v3H8v-5c0-1.112.898-2 2.005-2h.99A2 2 0 0 1 13 15v5h-1v-3zm-2.001-3A.997.997 0 0 0 9 15v1h3v-1c0-.552-.443-1-.999-1H9.999zm6.501 4.25L18 13h1l-2 7h-1l-2-7h1l1.5 5.25zM21 14v5h-1v1h3v-1h-1v-5h1v-1h-3v1h1z" fill="#929292" fill-rule="evenodd"/></svg>
